X:2
T:Jean Ireland's Jig
R:jig
C:Jimmy Shand
D:Andrea Beaton, The Tap Session
O:20th century Scottish
Z:Paul Stewart Cranford (P.S.C.), <http://www.cranfordpub.com>
L:1/8
M:6/8
Q:300
K:A
AEE AFF|AEE EAB|cef ecA|cBB BcB|
AEE AFF|AEE EAB|cef ecB|[1cAA AcB:|[2cAA Ace||
|:aAA fec|efe efg|aAA fec|[1cBA B2 e|
aAA fec|efe efg|aec BAB|cAA Ace:|
[2cBB BcB| AEE AFF|AEE EAB|cef ecB|cAA AcB|]

